X: 1324
T: An Orkney
R: barndance
M: 4/4
K: Dmajor
E2 c2 c2 B^A|B2 F2 F4|E2 G2 G2 EG|FE^DF E2 C=D|
E2 c2 c2 B^A|B2 F2 F3 A|GABc defG|A2 c2 A2:|
e2 a2 c2 ED|CEAB c2 Bc|d2 f2 G2 EG|AGAB c2 cd|
e2 a2 c2 ED|CEAB c3 A|GABc defg|a2 A2 A2:|
A2 f2 f2 e^d|e2 B2 B2 ed|c2 e2 c2 Bc|BA^GB A2 F=G|
A2 f2 f2 e^d|e2 B2 B3 A|^GABA =gecA|d2 f2 d2:|
a2 d2 f2 ag|fAde f2 ef|g2 b2 c2 Ac|dcde fefg|
a2 d2 f3 a|fdAd f2 ed|cdef gABc|dfec d2:|

